docs/figs/square-hole-debug.svg

<svg class="typst-doc" viewBox="0 0 595.2755905511812 841.8897637795276" width="595.2755905511812pt" height="841.8897637795276pt" xmlns="http://www.w3.org/2000/svg" xmlns:xlink="http://www.w3.org/1999/xlink" xmlns:h5="http://www.w3.org/1999/xhtml">
    <path class="typst-shape" fill="#ffffff" fill-rule="nonzero" d="M 0 0v 841.8898 h 595.2756 v -841.8898 Z "/>
    <g>
        <g class="typst-group">
            <g>
                <path class="typst-shape" fill="#ffdc00" fill-rule="nonzero" transform="matrix(1 0 0 1 212.5984251968504 335.90551181102364)" d="M 0 0m 0 85.03937 c 0 -46.923363 38.116005 -85.03937 85.03937 -85.03937 c 46.92337 0 85.03937 38.116005 85.03937 85.03937 c 0 46.92337 -38.115997 85.03937 -85.03937 85.03937 c -46.923363 0 -85.03937 -38.115997 -85.03937 -85.03937 "/>
                <g class="typst-group" transform="matrix(1 0 0 1 207.5984251968504 330.90551181102364)">
                    <g>
                        <path class="typst-shape" fill="url(#pA69E973882789E8F12DF800671A528CD)" fill-rule="nonzero" stroke="#ff4136" stroke-width="1" stroke-linecap="butt" stroke-linejoin="miter" stroke-miterlimit="4" d="M 0 0v 180.07874 h 180.07874 v -180.07874 Z "/>
                    </g>
                </g>
                <g class="typst-group" transform="matrix(1 0 0 1 70.86614173228347 70.86614173228347)">
                    <g>
                        <path class="typst-shape" fill="url(#pC59B07BA64EDB5748664FA877C9935E4)" fill-rule="nonzero" stroke="#2ecc40" stroke-width="1" stroke-linecap="butt" stroke-linejoin="miter" stroke-miterlimit="4" d="M 0 0v 260.03937 h 218.26772 v -260.03937 Z "/>
                    </g>
                </g>
                <g class="typst-group" transform="matrix(1 0 0 1 70.86614173228347 330.90551181102364)">
                    <g>
                        <path class="typst-shape" fill="url(#pC59B07BA64EDB5748664FA877C9935E4)" fill-rule="nonzero" stroke="#2ecc40" stroke-width="1" stroke-linecap="butt" stroke-linejoin="miter" stroke-miterlimit="4" d="M 0 0v 180.07874 h 136.73228 v -180.07874 Z "/>
                    </g>
                </g>
                <g class="typst-group" transform="matrix(1 0 0 1 70.86614173228347 510.98425196850394)">
                    <g>
                        <path class="typst-shape" fill="url(#pC59B07BA64EDB5748664FA877C9935E4)" fill-rule="nonzero" stroke="#2ecc40" stroke-width="1" stroke-linecap="butt" stroke-linejoin="miter" stroke-miterlimit="4" d="M 0 0v 260.03937 h 218.26772 v -260.03937 Z "/>
                    </g>
                </g>
                <g class="typst-group" transform="matrix(1 0 0 1 70.86614173228347 70.86614173228347)">
                    <g>
                        <path class="typst-shape" fill="url(#pC59B07BA64EDB5748664FA877C9935E4)" fill-rule="nonzero" stroke="#2ecc40" stroke-width="1" stroke-linecap="butt" stroke-linejoin="miter" stroke-miterlimit="4" d="M 0 0h 453.5433 Z "/>
                    </g>
                </g>
                <g class="typst-group" transform="matrix(1 0 0 1 289.13385826771656 70.86614173228347)">
                    <g>
                        <path class="typst-shape" fill="url(#pC59B07BA64EDB5748664FA877C9935E4)" fill-rule="nonzero" stroke="#2ecc40" stroke-width="1" stroke-linecap="butt" stroke-linejoin="miter" stroke-miterlimit="4" d="M 0 0v 260.03937 h 235.27559 v -260.03937 Z "/>
                    </g>
                </g>
                <g class="typst-group" transform="matrix(1 0 0 1 70.86614173228347 330.90551181102364)">
                    <g>
                        <path class="typst-shape" fill="url(#pC59B07BA64EDB5748664FA877C9935E4)" fill-rule="nonzero" stroke="#2ecc40" stroke-width="1" stroke-linecap="butt" stroke-linejoin="miter" stroke-miterlimit="4" d="M 0 0h 453.5433 Z "/>
                    </g>
                </g>
                <g class="typst-group" transform="matrix(1 0 0 1 70.86614173228347 330.90551181102364)">
                    <g>
                        <path class="typst-shape" fill="url(#pC59B07BA64EDB5748664FA877C9935E4)" fill-rule="nonzero" stroke="#2ecc40" stroke-width="1" stroke-linecap="butt" stroke-linejoin="miter" stroke-miterlimit="4" d="M 0 0h 453.5433 Z "/>
                    </g>
                </g>
                <g class="typst-group" transform="matrix(1 0 0 1 387.6771653543307 330.90551181102364)">
                    <g>
                        <path class="typst-shape" fill="url(#pC59B07BA64EDB5748664FA877C9935E4)" fill-rule="nonzero" stroke="#2ecc40" stroke-width="1" stroke-linecap="butt" stroke-linejoin="miter" stroke-miterlimit="4" d="M 0 0v 180.07874 h 136.73228 v -180.07874 Z "/>
                    </g>
                </g>
                <g class="typst-group" transform="matrix(1 0 0 1 70.86614173228347 510.98425196850394)">
                    <g>
                        <path class="typst-shape" fill="url(#pC59B07BA64EDB5748664FA877C9935E4)" fill-rule="nonzero" stroke="#2ecc40" stroke-width="1" stroke-linecap="butt" stroke-linejoin="miter" stroke-miterlimit="4" d="M 0 0h 453.5433 Z "/>
                    </g>
                </g>
                <g class="typst-group" transform="matrix(1 0 0 1 70.86614173228347 510.98425196850394)">
                    <g>
                        <path class="typst-shape" fill="url(#pC59B07BA64EDB5748664FA877C9935E4)" fill-rule="nonzero" stroke="#2ecc40" stroke-width="1" stroke-linecap="butt" stroke-linejoin="miter" stroke-miterlimit="4" d="M 0 0h 453.5433 Z "/>
                    </g>
                </g>
                <g class="typst-group" transform="matrix(1 0 0 1 289.13385826771656 510.98425196850394)">
                    <g>
                        <path class="typst-shape" fill="url(#pC59B07BA64EDB5748664FA877C9935E4)" fill-rule="nonzero" stroke="#2ecc40" stroke-width="1" stroke-linecap="butt" stroke-linejoin="miter" stroke-miterlimit="4" d="M 0 0v 260.03937 h 235.27559 v -260.03937 Z "/>
                    </g>
                </g>
                <g class="typst-group" transform="matrix(1 0 0 1 70.86614173228347 771.0236220472441)">
                    <g>
                        <path class="typst-shape" fill="url(#pC59B07BA64EDB5748664FA877C9935E4)" fill-rule="nonzero" stroke="#2ecc40" stroke-width="1" stroke-linecap="butt" stroke-linejoin="miter" stroke-miterlimit="4" d="M 0 0h 453.5433 Z "/>
                    </g>
                </g>
            </g>
        </g>
    </g>
    <defs id="tilings">
        <pattern id="t6768752016A328DCE79FCC41FBD43C97" width="30" height="30" patternUnits="userSpaceOnUse" viewBox="0 0 30.000 30.000">
            <g>
                <g class="typst-group">
                    <g>
                        <path class="typst-shape" fill="#ff41360d" fill-rule="nonzero" d="M 0 0v 30 h 30 v -30 Z "/>
                    </g>
                </g>
                <path class="typst-shape" fill="none" stroke="#ff4136" stroke-width="0.1" stroke-linecap="butt" stroke-linejoin="miter" stroke-miterlimit="4" transform="matrix(1 0 0 1 7.5 7.5)" d="M 0 0l 15 15 "/>
                <path class="typst-shape" fill="none" stroke="#ff4136" stroke-width="0.1" stroke-linecap="butt" stroke-linejoin="miter" stroke-miterlimit="4" transform="matrix(1 0 0 1 7.5 22.5)" d="M 0 0l 15 -15 "/>
            </g>
        </pattern>
        <pattern id="tFDCC47782D2698055505A1D5B7E3AC44" width="30" height="30" patternUnits="userSpaceOnUse" viewBox="0 0 30.000 30.000">
            <g>
                <g class="typst-group">
                    <g>
                        <path class="typst-shape" fill="#2ecc400d" fill-rule="nonzero" d="M 0 0v 30 h 30 v -30 Z "/>
                    </g>
                </g>
                <path class="typst-shape" fill="none" stroke="#2ecc40" stroke-width="0.1" stroke-linecap="butt" stroke-linejoin="miter" stroke-miterlimit="4" transform="matrix(1 0 0 1 7.5 15)" d="M 0 0h 15 "/>
                <path class="typst-shape" fill="none" stroke="#2ecc40" stroke-width="0.1" stroke-linecap="butt" stroke-linejoin="miter" stroke-miterlimit="4" transform="matrix(1 0 0 1 15 7.5)" d="M 0 0v 15 "/>
            </g>
        </pattern>
    </defs>
    <defs id="tilings-refs">
        <pattern patternTransform="matrix(1 0 0 1 0 0)" id="pA69E973882789E8F12DF800671A528CD" href="#t6768752016A328DCE79FCC41FBD43C97" xlink:href="#t6768752016A328DCE79FCC41FBD43C97"/>
        <pattern patternTransform="matrix(1 0 0 1 0 0)" id="pC59B07BA64EDB5748664FA877C9935E4" href="#tFDCC47782D2698055505A1D5B7E3AC44" xlink:href="#tFDCC47782D2698055505A1D5B7E3AC44"/>
    </defs>
</svg>

<svg class="typst-doc" viewBox="0 0 595.2755905511812 841.8897637795276" width="595.2755905511812pt" height="841.8897637795276pt" xmlns="http://www.w3.org/2000/svg" xmlns:xlink="http://www.w3.org/1999/xlink" xmlns:h5="http://www.w3.org/1999/xhtml">
    <path class="typst-shape" fill="#ffffff" fill-rule="nonzero" d="M 0 0 L 0 841.8898 L 595.2756 841.8898 L 595.2756 0 Z "/>
    <g>
        <g transform="translate(70.86614173228347 70.86614173228347)">
            <g class="typst-group">
                <g>
                    <g transform="translate(141.73228346456693 265.03937007874015)">
                        <path class="typst-shape" fill="#ffdc00" fill-rule="nonzero" d="M 0 85.03937 C 0 38.116005 38.116005 0 85.03937 0 C 131.96274 0 170.07874 38.116005 170.07874 85.03937 C 170.07874 131.96274 131.96274 170.07874 85.03937 170.07874 C 38.116005 170.07874 0 131.96274 0 85.03937 "/>
                    </g>
                    <g transform="translate(136.73228346456693 260.03937007874015)">
                        <g class="typst-group">
                            <g>
                                <g transform="translate(-0 -0)">
                                    <path class="typst-shape" fill="url(#p66BC1ACEBEA5C6998C7490CA09760A00)" fill-rule="nonzero" stroke="#ff4136" stroke-width="1" stroke-linecap="butt" stroke-linejoin="miter" stroke-miterlimit="4" d="M 0 0 L 0 180.07874 L 180.07874 180.07874 L 180.07874 0 Z "/>
                                </g>
                            </g>
                        </g>
                    </g>
                    <g transform="translate(0 0)">
                        <g class="typst-group">
                            <g>
                                <g transform="translate(-0 -0)">
                                    <path class="typst-shape" fill="url(#p55E11A1058E5598A3D909D528C8D726B)" fill-rule="nonzero" stroke="#2ecc40" stroke-width="1" stroke-linecap="butt" stroke-linejoin="miter" stroke-miterlimit="4" d="M 0 0 L 0 260.03937 L 218.26772 260.03937 L 218.26772 0 Z "/>
                                </g>
                            </g>
                        </g>
                    </g>
                    <g transform="translate(0 260.03937007874015)">
                        <g class="typst-group">
                            <g>
                                <g transform="translate(-0 -0)">
                                    <path class="typst-shape" fill="url(#p55E11A1058E5598A3D909D528C8D726B)" fill-rule="nonzero" stroke="#2ecc40" stroke-width="1" stroke-linecap="butt" stroke-linejoin="miter" stroke-miterlimit="4" d="M 0 0 L 0 180.07874 L 136.73228 180.07874 L 136.73228 0 Z "/>
                                </g>
                            </g>
                        </g>
                    </g>
                    <g transform="translate(0 440.11811023622045)">
                        <g class="typst-group">
                            <g>
                                <g transform="translate(-0 -0)">
                                    <path class="typst-shape" fill="url(#p55E11A1058E5598A3D909D528C8D726B)" fill-rule="nonzero" stroke="#2ecc40" stroke-width="1" stroke-linecap="butt" stroke-linejoin="miter" stroke-miterlimit="4" d="M 0 0 L 0 260.03937 L 218.26772 260.03937 L 218.26772 0 Z "/>
                                </g>
                            </g>
                        </g>
                    </g>
                    <g transform="translate(0 0)">
                        <g class="typst-group">
                            <g>
                                <g transform="translate(-0 -0)">
                                    <path class="typst-shape" fill="url(#p55E11A1058E5598A3D909D528C8D726B)" fill-rule="nonzero" stroke="#2ecc40" stroke-width="1" stroke-linecap="butt" stroke-linejoin="miter" stroke-miterlimit="4" d="M 0 0 L 0 0 L 453.5433 0 L 453.5433 0 Z "/>
                                </g>
                            </g>
                        </g>
                    </g>
                    <g transform="translate(218.26771653543307 0)">
                        <g class="typst-group">
                            <g>
                                <g transform="translate(-0 -0)">
                                    <path class="typst-shape" fill="url(#p55E11A1058E5598A3D909D528C8D726B)" fill-rule="nonzero" stroke="#2ecc40" stroke-width="1" stroke-linecap="butt" stroke-linejoin="miter" stroke-miterlimit="4" d="M 0 0 L 0 260.03937 L 235.27559 260.03937 L 235.27559 0 Z "/>
                                </g>
                            </g>
                        </g>
                    </g>
                    <g transform="translate(0 260.03937007874015)">
                        <g class="typst-group">
                            <g>
                                <g transform="translate(-0 -0)">
                                    <path class="typst-shape" fill="url(#p55E11A1058E5598A3D909D528C8D726B)" fill-rule="nonzero" stroke="#2ecc40" stroke-width="1" stroke-linecap="butt" stroke-linejoin="miter" stroke-miterlimit="4" d="M 0 0 L 0 0 L 453.5433 0 L 453.5433 0 Z "/>
                                </g>
                            </g>
                        </g>
                    </g>
                    <g transform="translate(0 260.03937007874015)">
                        <g class="typst-group">
                            <g>
                                <g transform="translate(-0 -0)">
                                    <path class="typst-shape" fill="url(#p55E11A1058E5598A3D909D528C8D726B)" fill-rule="nonzero" stroke="#2ecc40" stroke-width="1" stroke-linecap="butt" stroke-linejoin="miter" stroke-miterlimit="4" d="M 0 0 L 0 0 L 453.5433 0 L 453.5433 0 Z "/>
                                </g>
                            </g>
                        </g>
                    </g>
                    <g transform="translate(316.81102362204723 260.03937007874015)">
                        <g class="typst-group">
                            <g>
                                <g transform="translate(-0 -0)">
                                    <path class="typst-shape" fill="url(#p55E11A1058E5598A3D909D528C8D726B)" fill-rule="nonzero" stroke="#2ecc40" stroke-width="1" stroke-linecap="butt" stroke-linejoin="miter" stroke-miterlimit="4" d="M 0 0 L 0 180.07874 L 136.73228 180.07874 L 136.73228 0 Z "/>
                                </g>
                            </g>
                        </g>
                    </g>
                    <g transform="translate(0 440.11811023622045)">
                        <g class="typst-group">
                            <g>
                                <g transform="translate(-0 -0)">
                                    <path class="typst-shape" fill="url(#p55E11A1058E5598A3D909D528C8D726B)" fill-rule="nonzero" stroke="#2ecc40" stroke-width="1" stroke-linecap="butt" stroke-linejoin="miter" stroke-miterlimit="4" d="M 0 0 L 0 0 L 453.5433 0 L 453.5433 0 Z "/>
                                </g>
                            </g>
                        </g>
                    </g>
                    <g transform="translate(0 440.11811023622045)">
                        <g class="typst-group">
                            <g>
                                <g transform="translate(-0 -0)">
                                    <path class="typst-shape" fill="url(#p55E11A1058E5598A3D909D528C8D726B)" fill-rule="nonzero" stroke="#2ecc40" stroke-width="1" stroke-linecap="butt" stroke-linejoin="miter" stroke-miterlimit="4" d="M 0 0 L 0 0 L 453.5433 0 L 453.5433 0 Z "/>
                                </g>
                            </g>
                        </g>
                    </g>
                    <g transform="translate(218.26771653543307 440.11811023622045)">
                        <g class="typst-group">
                            <g>
                                <g transform="translate(-0 -0)">
                                    <path class="typst-shape" fill="url(#p55E11A1058E5598A3D909D528C8D726B)" fill-rule="nonzero" stroke="#2ecc40" stroke-width="1" stroke-linecap="butt" stroke-linejoin="miter" stroke-miterlimit="4" d="M 0 0 L 0 260.03937 L 235.27559 260.03937 L 235.27559 0 Z "/>
                                </g>
                            </g>
                        </g>
                    </g>
                    <g transform="translate(0 700.1574803149606)">
                        <g class="typst-group">
                            <g>
                                <g transform="translate(-0 -0)">
                                    <path class="typst-shape" fill="url(#p55E11A1058E5598A3D909D528C8D726B)" fill-rule="nonzero" stroke="#2ecc40" stroke-width="1" stroke-linecap="butt" stroke-linejoin="miter" stroke-miterlimit="4" d="M 0 0 L 0 0 L 453.5433 0 L 453.5433 0 Z "/>
                                </g>
                            </g>
                        </g>
                    </g>
                </g>
            </g>
        </g>
    </g>
    <defs id="tilings">
        <pattern id="t2F67AF8BD27593D2058F42E652AA4BE7" width="30" height="30" patternUnits="userSpaceOnUse" viewBox="0 0 30.000 30.000">
            <g>
                <g transform="translate(0 0)">
                    <g class="typst-group">
                        <g>
                            <g transform="translate(-0 -0)">
                                <path class="typst-shape" fill="#ff41360d" fill-rule="nonzero" d="M 0 0 L 0 30 L 30 30 L 30 0 Z "/>
                            </g>
                        </g>
                    </g>
                </g>
                <g transform="translate(7.5 7.5)">
                    <path class="typst-shape" fill="none" stroke="#ff4136" stroke-width="0.1" stroke-linecap="butt" stroke-linejoin="miter" stroke-miterlimit="4" d="M 0 0 L 15 15 "/>
                </g>
                <g transform="translate(7.5 22.5)">
                    <path class="typst-shape" fill="none" stroke="#ff4136" stroke-width="0.1" stroke-linecap="butt" stroke-linejoin="miter" stroke-miterlimit="4" d="M 0 0 L 15 -15 "/>
                </g>
            </g>
        </pattern>
        <pattern id="tD06D5C9FDDE18B7ECBF28FBB1815F39E" width="30" height="30" patternUnits="userSpaceOnUse" viewBox="0 0 30.000 30.000">
            <g>
                <g transform="translate(0 0)">
                    <g class="typst-group">
                        <g>
                            <g transform="translate(-0 -0)">
                                <path class="typst-shape" fill="#2ecc400d" fill-rule="nonzero" d="M 0 0 L 0 30 L 30 30 L 30 0 Z "/>
                            </g>
                        </g>
                    </g>
                </g>
                <g transform="translate(7.5 15)">
                    <path class="typst-shape" fill="none" stroke="#2ecc40" stroke-width="0.1" stroke-linecap="butt" stroke-linejoin="miter" stroke-miterlimit="4" d="M 0 0 L 15 0 "/>
                </g>
                <g transform="translate(15 7.5)">
                    <path class="typst-shape" fill="none" stroke="#2ecc40" stroke-width="0.1" stroke-linecap="butt" stroke-linejoin="miter" stroke-miterlimit="4" d="M 0 0 L 0 15 "/>
                </g>
            </g>
        </pattern>
    </defs>
    <defs id="tilings-refs">
        <pattern patternTransform="matrix(1 0 0 1 0 0)" id="p66BC1ACEBEA5C6998C7490CA09760A00" href="#t2F67AF8BD27593D2058F42E652AA4BE7" xlink:href="#t2F67AF8BD27593D2058F42E652AA4BE7"/>
        <pattern patternTransform="matrix(1 0 0 1 0 0)" id="p55E11A1058E5598A3D909D528C8D726B" href="#tD06D5C9FDDE18B7ECBF28FBB1815F39E" xlink:href="#tD06D5C9FDDE18B7ECBF28FBB1815F39E"/>
    </defs>
</svg>
